client/public/assets/icons/utility/list.svg

<?xml version="1.0"?><svg xmlns="http://www.w3.org/2000/svg" width="52" height="52" viewBox="0 0 52 52"><g fill="#fff"><path d="m8 10.5c0-0.8-0.7-1.5-1.5-1.5h-3c-0.8 0-1.5 0.7-1.5 1.5v3c0 0.8 0.7 1.5 1.5 1.5h3c0.8 0 1.5-0.7 1.5-1.5v-3z m42 0c0-0.8-0.7-1.5-1.5-1.5h-35c-0.8 0-1.5 0.7-1.5 1.5v3c0 0.8 0.7 1.5 1.5 1.5h35c0.8 0 1.5-0.7 1.5-1.5v-3z m-42 14c0-0.8-0.7-1.5-1.5-1.5h-3c-0.8 0-1.5 0.7-1.5 1.5v3c0 0.8 0.7 1.5 1.5 1.5h3c0.8 0 1.5-0.7 1.5-1.5v-3z m38 0c0-0.8-0.7-1.5-1.5-1.5h-31c-0.8 0-1.5 0.7-1.5 1.5v3c0 0.8 0.7 1.5 1.5 1.5h31c0.8 0 1.5-0.7 1.5-1.5v-3z m-38 14c0-0.8-0.7-1.5-1.5-1.5h-3c-0.8 0-1.5 0.7-1.5 1.5v3c0 0.8 0.7 1.5 1.5 1.5h3c0.8 0 1.5-0.7 1.5-1.5v-3z m42 0c0-0.8-0.7-1.5-1.5-1.5h-35c-0.8 0-1.5 0.7-1.5 1.5v3c0 0.8 0.7 1.5 1.5 1.5h35c0.8 0 1.5-0.7 1.5-1.5v-3z"></path></g></svg>

<?xml version="1.0" encoding="utf-8"?>
<!-- Generator: Adobe Illustrator 18.1.1, SVG Export Plug-In . SVG Version: 6.00 Build 0)  -->
<svg version="1.1" id="Layer_1" xmlns="http://www.w3.org/2000/svg" xmlns:xlink="http://www.w3.org/1999/xlink" x="0px" y="0px"
	 width="52px" height="52px" viewBox="0 0 52 52" enable-background="new 0 0 52 52" xml:space="preserve">
<g>
	<path fill="#FFFFFF" d="M8,10.5C8,9.7,7.3,9,6.5,9h-3C2.7,9,2,9.7,2,10.5v3C2,14.3,2.7,15,3.5,15h3C7.3,15,8,14.3,8,13.5V10.5z"/>
	<path fill="#FFFFFF" d="M50,10.5C50,9.7,49.3,9,48.5,9h-35C12.7,9,12,9.7,12,10.5v3c0,0.8,0.7,1.5,1.5,1.5h35
		c0.8,0,1.5-0.7,1.5-1.5V10.5z"/>
	<path fill="#FFFFFF" d="M8,24.5C8,23.7,7.3,23,6.5,23h-3C2.7,23,2,23.7,2,24.5v3C2,28.3,2.7,29,3.5,29h3C7.3,29,8,28.3,8,27.5V24.5
		z"/>
	<path fill="#FFFFFF" d="M46,24.5c0-0.8-0.7-1.5-1.5-1.5h-31c-0.8,0-1.5,0.7-1.5,1.5v3c0,0.8,0.7,1.5,1.5,1.5h31
		c0.8,0,1.5-0.7,1.5-1.5V24.5z"/>
	<path fill="#FFFFFF" d="M8,38.5C8,37.7,7.3,37,6.5,37h-3C2.7,37,2,37.7,2,38.5v3C2,42.3,2.7,43,3.5,43h3C7.3,43,8,42.3,8,41.5V38.5
		z"/>
	<path fill="#FFFFFF" d="M50,38.5c0-0.8-0.7-1.5-1.5-1.5h-35c-0.8,0-1.5,0.7-1.5,1.5v3c0,0.8,0.7,1.5,1.5,1.5h35
		c0.8,0,1.5-0.7,1.5-1.5V38.5z"/>
</g>
</svg>
